**kern
*staff1
*solo1[solo1a]
*solo2[solo2a]
*solo3[solo3a]
*solo4[solo4a]
*solo5[solo5a]
*solo6[solo6a]
*solo7[solo7a]
*solo8[solo8a]
=1-
*clefG2
*k[]
*B-:
*M4/4
4r
*>solo1a
{8g/L
8g-/J
8f/L
8e/
8e-/
8A/J
=2
8B-/L
8d-/
8c/
8B-/J
8A/L
8f#/
8e-/
8en/J
=3||
8f/L
8d/J
12B-/L
12G/
12E-/J
8d-/L
8dn/
8e-/
8en/J
=4
8f/L
8d/
8B-/
8A/J
4A-/}
4r
=5
2r
4r
8r
{[8dd-\
=6
8dd-\]
4b-\
8cc\
8b-/L
8a-/
8g/
[8f/J
=7
24f/LL]
24g/
24f/JJ
8d/
24e-/LL
24f/
24g/
24b-/
24cc/
24dd/JJ
8ff\L
[8ee-\J
4ee-\]}
=8
2r
8r
{16ff\LL
16ee\J
8ee-\
8dd\J
=9
8dd-\L
8cc\
8b-\
8g-\J
8e-/L
8c/
8a/
8gn/J
=10
8f/L
8e-/
8d/
8B-/J
8c/L
8B-/
8A/
8B-/J
=11||
8d/L
8f/
8g/
8a/J
8cc\L
8b\
8b-\
8a\J
=12
8g/L
8f/
8e/
8c/J
2d/}
=13
2r
4r
{4e/
=14
1f
=15
4b-\
4r
4r
8r
8e/
=16
2f/
4B-/}
4r
=17
2r
4r
8r
*>solo2a
{8d/
=18
8f/L
16g/L
16f/J
8d/
8f/J
8b-\L
16cc\L
16b-\J
8f\
8b-\J
=19||
8dd\L
8cc\
8b-\
8a\J
8cc\L
8bn\
8b-\
8a\J
=20
8a-/L
8c/
8B/
8c/J
4g/}
4r
=21
4r
{8ff#\L
16ee\L
16cc#\JJ
8b-/L
16a-/L
16b-/J
8g/
8g-/J
=22
8f/L
8e/
8e-/
8B-/J
8c/L
8d-/J
24c/LL
24d-/
24c/JJ
8Bn/
=23
8B-/L
8A-/J
12G/L
12B-/
12d/J
8f/L
8d/J
12g\L
12b-\
12dd\J
=24
4ff\
8ee-/L
[8f#/J
4f#/]}
4r
=25
8r
{8f/
12g-\L
12b-\
12cc\J
8ff\L
8ee\
8ee-\
8dd\J
=26
8dd-\L
8cc\
8b-\
8g-\J
8e-/L
8c/
8a/
8gn/J
=27||
8f/L
8e-/
8d/
8B-/J
8c/L
8A/J
16B-/LL
16c/
16d/
16f/JJ
=28
8a/L
8g/
8e/
8c/J
2d/}
=29
1r
=30
4r
{4E-/
8c/L
8e-/
8d/
8c/J
=31
8B/L
8a-/
8g/
8d/J
4f/}
4r
=32
8r
{8b-\
12g\L
12b-\
12dd\J
8ff\L
8ee-\J}
4r
=33
8r
*>solo3a
{8f/
16g-/LL
16a/
16dd-/
16ff/JJ
4.aa-\
8gg-\
=34
8ff\L
16ee\L
16ee-\J
8dd\J
8r
8ee-\L
16dd\L
16dd-\J
8cc\J
8r
=35||
cc#q/
4dd\
8b-\L
[8ccn\J
2cc\]}
=36
2r
8r
{8g/
12a-\L
12cc\
12ee-\J
=37
8gg\L
8gg-\
8ff\
8ee\J
8ee-\L
8dd\
8cc\
8b\J
=38
8b-/L
8a/
8a-/
8cc/J
8g\L
8b-\
8cc\
8dd\J
=39
8ff\L
8ee-\
8dd\
8cc\J
8b-/L
8a-/
8g/
8f/J
=40
8e-/L
8f/
8g-/
8dd-/J
8r
8cc\
[4g-/
=41
4g-/]}
4r
2r
=42
{8f/L
8g/
8b-/
[8dd/J
4dd\_
8dd\L]
8b-\J
=43||
8cc\L
[8b-\J
4b-\]}
2r
=44
8r
{8e-/
12en/L
12g/
12b-/J
8dd/L
8g/
8a/
8cc/J
=45
8b-/L
8g/
8e/
8c/J
8a/L
[8g/J
4g/]
=46
8dd\L
8dd-\
8cc\
8b\J
8b-/L
8a/
8g/
8g-/J
=47
8f/L
8a/J
4r
4.d/
8B-/
=48
8c/L
8B-/
8A/
8B-/J
8d/L
8f/J}
4r
=49
1r
=50
4r
*>solo4a
{12g-/L
12a-/
12b-/J
8dd-\L
8bn\
8b-\
8a-\J
=51||
4.b\
8a-/
8e/L
8e-/
8d/
[8b-/J
=52
4b-\]
8g#/L
8gn/J
8f#/L
8e/J
12d#/L
12f#/
12a#/J
=53
8cc#/L
8a#/J
12b\L
12cc#\
12dd#\J
8gg#\L
8ff#\J}
4r
=54
4r
8r
{8ff\
8ee\L
8dd#\
8ddn\
8cc#\J
=55
8b/L
8a/
8g#/
8f#/J
8e/L
8B/
8d/
8B/J
=56
8c#/L
8e/
8f#/
8a-/J
8b/L
8a-/J
12an\L
12cc#\
12ee\J
=57
8aa-\L
8aan\
8aa\
8aa\J
8ee-\L
8een\J}
4r
=58
2r
4r
{8gg\L
16ee\L
16cc\JJ
=59||
8b/L
8b-/
8a/
8a-/J
8g/L
8e/
8f#/
8an/J
=60
8cc\L
8ee-\
8dd\
8cc\J
8b/L
8d/
8e/
8a/J
=61
8g/L
8e/
8c/
8A/J
8d/L
8B/J}
4r
=62
2r
8r
{8f#/
12g\L
12b-\
12dd\J
=63
12gg\L
12gg-\
12ff\J
8ee\L
8cc\J
8cc#\L
8dd\
8b-\
8a\J
=64
8g/L
8f/J
12e-/L
12g/
12b-/J
8dd\L
8dd-\
8cc\
8bn\J
=65
8b-/L
8g-/
8e-/
8B/J
8a-/L
8g-/
8B/
8A/J
=66
8B-/L
8e-/
8c/
8c#/J
8d/L
8B-/
8G/
8A/J
=67||
8c/L
8B-/
8c/
[8f/J
2f/]
=68
1r
=69
2r
*>solo5a
{6b-\
6b-\
6b-\
=70
4b-\
8r
16cc\LL
16b-\JJ
8g\L
8b-\
8cc\
8b-\J
=71
8r
16cc\LL
16b-\J
8g\
8b-\J
6b-\
6b-\
6b-\
=72
4b-\}
4r
8r
{16c/LL
16d/JJ
12e-/L
12g-/
12b-/J
=73
8dd\L
8dd-\
8cc\
8b\J
8b-/L
8g-/
8e-/
8c/J
=74
4b-\
[2b-\
8b-\L]
16cc\L
16b-\JJ
=75||
8a/L
8b-/
8cc/
8a/J
8b-/L
8f/
8d/
8B-/J
=76
24a/LL
24b-/
24a/JJ
8g/L
8e/
8c/J
2d/}
=77
2r
4r
{4E-/
=78
8c/L
8e-/
8d/
8d-/J
8c/L
8B/
8B-/
8A-/J
=79
8A/L
8g-/
8e-/
8en/J
8f/L
8e-/J
12d/L
12f/
12a/J
=80
8cc/L
8a/J
16b-\LL
16cc\
16cc#\
16dd\JJ
8gg\L
8gg-\
8ff\
8ee\J
=81
8ee-\L
8cc#\
8dd\
8ff\J
8dd/L
8f/
8g/
8ccn/J
=82
8r
8cc\
2b-\}
4r
=83||
2r
{8cc\L
8b-\J
[4dd\
=84
4dd\]
8ee-\L
8dd\J
8cc\L
8b\
8b-\
8a\J
=85
8a-/L
8c/
8c#/
8d/J
8g/L
8f/
8d/
8B-/J
=86
8f/L
8b-/J}
4r
2r
=87
8r
{8f#/
12g\L
12b-\
12dd\J
8ff\L
8ee-\
8dd\
8cc\J
=88
8b-/L
8g-/
8e-/
8c/J
8a-/L
8g-/
8B/
8A/J
=89
8B-/L
8e-/
8c/
8c#/J
8d/L
8B-/
8G/
8A/J
=90
8c/L
8A/J
12B-/L
12c/
12d/J
8f/L
16g/L
16a/J
8b-/
16cc/L
16cc#/JJ
=91||
4dd\
8f/L
[8g/J
4g/]}
4r
=92
2r
8r
{8e-/
12en/L
12g/
12b-/J
=93
8dd/L
8g/
8a/
8cc/J
8b-/L
8a/
8g/
8f/J
=94
8g/L
8a/
8b-/
8g/J
8e-/L
8c/J
12a-/L
12g/
12g-/J
=95
8f/L
8e-/
8d/
8c/J
8B/L
8d/
8f/
8a-/J
=96
8g/L
8f/J
12e-/L
12g/
12b-/J
8dd\L
8cc\J}
4r
=97
1r
=98
*>solo6a
{4b-\
8dd\L
8gg\J
4ff\
4gg\
=99||
4b-\
8g/L
8d/J
4ff\
4gg\
=100
8ff/L
[8a-/J
4a-/]}
2r
=101
4r
{16gg\LL
16gg-\
16ff\
16ee-\JJ
8dd\L
8cc\
8b-\
8a-\J
=102
8g\L
8b-\
8cc\
8dd\J
8ff\L
8ee-\
8dd\
8cc\J
=103
8b-/L
8a-/
8g/
8f/J
8e-/L
8f/J
12g\L
12b-\
12dd\J
=104
4ff\
8ee-/L
[8g-/J
4g-/]}
4r
=105
2r
4r
{8cc#\L
8dd\J
=106
8gg\L
16gg-\L
16ff\J
8a\
8b-\J
8ee-/L
8dd/
8e/
8f/J
=107||
8cc/L
8b-/
8c#/
8d/J
8g/L
8f/
8d/
8e/J
=108
8g/L
8a/
8b-/
8cc/J
8dd/L
8g/
8a/
8cc/J
=109
8b-/L
8g/
8e/
8c/J
8a/L
8g/
8f#/
8g/J
=110
8cc\L
8b\
8b-\
8a\J
8g/L
8f/
8B/
8A/J
=111
8B-/L
8d/
8c/
8B-/J
4A/}
4r
=112
4r
8r
{16c/LL
16B-/JJ
8A/L
8B-/
8d/
[8f/J
=113
8f/L]
8f/J}
4r
2r
=114
8r
*>solo7a
{16c#/LL
16e/JJ
16g#\LL
16b\J
[8dd#\J
2dd#\_
=115||
4dd#\]
8a#/L
[8ddn/J
8dd\]
24a#/LL
24g#/
24f#/JJ
4e/}
=116
8r
{8d/
16d#/LL
16f#/
16g#/
16a#/JJ
[2cc#\
=117
8cc#/L]
8a#/J
12b\L
12cc#\
12dd#\J
8gg#\L
8ff#\J}
4r
=118
8r
{16B/LL
16d/J
8f#/
8a/J
[2cc#\
=119
4cc#\]
8g#/L
[8cc#/J
8cc#\L]
16b\L
16g#\JJ
12e/L
12e-/
12d/J}
=120
2r
8r
{8c/
12c#/L
12e/
12g#/J
=121
8b/L
8g#/J
16a\LL
16b\
16cc#\
16ee\JJ
8gg#\L
8aa\J}
4r
=122
4r
{8gg\L
16ee\L
16dd\JJ
8b/L
8b-/
8a/
8a-/J
=123||
8g/L
8e/
8f#/
8a/J
8cc\L
8ee-\
8dd\
8cc\J
=124
[4b\
8b/L]
16g/L
16e/JJ
8g/L
8d/
8g/
8g/J
=125
8b/L
8g/J}
4r
2r
=126
8r
{8f#/
12g\L
12b-\
12dd\J
12gg\L
12gg-\
12ff\J
8ee\L
8cc\J
=127
8cc#\L
8dd\
8b-\
8a\J
8g/L
8f/J
12e/L
12g/
12b-/J
=128
8dd\L
8dd-\
8cc\
8b\J
8b-/L
8a/
8g/
8g-/J
=129
8f/L
8e-/
8d/
8f/J
8f#/L
8a/
8g/
8d/J
=130
2g/}
2r
=131||
4r
8r
*>solo8a
{8d/
8f/
8r
8f/L
[8e-/J
=132
8e-/L]
8e-/
8d/
[8A-/J
2A-/]}
=133
8r
{8b-\
24cc#\LL
24dd\
24cc#\JJ
8a/
8b-\L
8dd\
8ccn\
8g\J
=134
2.cc\}
4r
=135
4r
8r
{8g/
8b-\
8r
8b-/L
[8a-/J
=136
8a-/L]
8a-/
8g-/
[8dd-/J
8dd-\L]
8dd-\
8cc\
[8aa-\J
=137
8aa-\L]
8aa-\J
2gg-\}
4r
=138
4r
8r
{8ee\
8ff\L
8a\
8b-\
8ee-\J
=139||
8dd/L
8b-/
8g/
8a/J
8cc\L
8bn\
8b-\
8a\J
=140
8g/L
8f/
8e/
8c/J
2d/}
=141
2r
4r
{12a\L
12b-\
[12dd-\J
=142
4dd-\]
8cc\L
8b\J
8b-/L
8g-/
8e-/
8B-/J
=143
4.d-/
8c/
8r
8B-/L
8A/
8c/J
=144
8e-/L
8g-/
8e-/
8en/J
4f/
4r
=145
8cc\L
8a\
8b-\
8ff\J}
2r
==
*-
